X: 51
T: Fang yang
%%abc-version 2.0
%%abcx-abcm2ps-target-version 5.9.1 (29 Sep 2008)
%%abc-creator hum2abc beta
%%abcx-conversion-date 2013/10/02 07:52:29
%%abc-edited-by Helmut Schaffrath
%%humdrum-veritas 2314750046
%%humdrum-veritas-data 30389280
%%continueall 1
%%barnumbers 0
L: 1/8
M: 2/4
K: D
B2B d [I:setbarnb 1]| 
B2A F | 
d> e d B | 
B AF2 | 
A> A F A | 
B2d2 | 
F> E D E/ F/ | 
E2z2 | 
F2F2 | 
B2d B | 
B FB2 | 
D3B, | 
BB2d | 
B2D E | 
F> A E C | 
B,4 |]  



